X: 67
T: No_161_.krn
%%abc-version 2.0
%%abcx-abcm2ps-target-version 5.9.1 (29 Sep 2008)
%%abc-creator hum2abc beta
%%abcx-conversion-date 2020/08/10 18:54:57
%%gracespace 0 6 6
%%humdrum-veritas 1786539117
%%humdrum-veritas-data 366953998
%%linebreak <none>
%%barnumbers 0
L: 1/16
M: 3/4
%%staves {1 2}
V: 1 clef=bass
V: 2 clef=bass
K: Gb
[V:1] [K:clef=bass][M:3/4]DD2DD6B,2 ||  
[V:2] [K:clef=bass][M:3/4]!accent!G,,2 z G,, !accent!G,,2 z G,, !accent!G,,2 z G,, ||  
[V:1] [M:2/4]D2<B,2 DB,3 | 
[V:2] [M:2/4]z8 | 
[V:1] G,G,2E, G,G,3- | 
[V:2] z8 | 
[V:1] G,4DB,3 | 
[V:2] z8 | 
[V:1] DG,2G, (3:2:4G,2E,2G,E, ||  
[V:2] z8 ||  
[V:1] [M:3/4]D,8(3:2:4G,2E,2G,E, ||  
[V:2] [M:3/4]z12 ||  
[V:1] [M:2/4]D,6B,,2 | 
[V:2] [M:2/4]z8 | 
[V:1] D,D,2B,,2< G,,2G,, | 
[V:2] z8 | 
[V:1] G,,8 |]  
[V:2] z8 |]  


